X: 1
T: Random song
M: 4/4
L: 1/8
R: reel
K: Emin
|b2g2|b2e2|b2g2|e2c2
|e2c2|e2F2|e2c2|g2b2
|b2g2|b2e2|b2g2|d2B2
|e2c2|e2F2|F2A2|B2d2
|b2g2|e2c2|b2g2|b2e2
|e2c2|g2b2|e2c2|e2F2
|b2g2|d2B2|b2g2|b2e2
|F2A2|B2d2|e2c2|e2F2
|g2g2|g2g2|b2b2|b2b2
|g2g2|g2g2|e2e2|e2e2
|gege|gcgc|agag|afaf
|gege|gcgc|agag|fafa
|gecA|fdBG|GABc|defg
|g2dg|f4|f2cf|e4
|dfe2|ced2|cdef|g4